X:1
T:423 - Oh, Buscai
T:Letra: Henry Maxwell Wright (1849-1931)
T:MÃºsica: Thomas Cairns
M:3/4
L:1/8
Q:1/4=90
K:Cmaj
V:1
E>E | "C"E3E "G7"F>F | "C"FE3 G>G | "G/D"G3G "D"A>^F | "G"AG2z G>G | "C"c3c c>c | "F"BA3 G>A | "G"G2 D2 "G7"G>A | "C"G2 z2 |]
w:1.~Oh, bus-cai, nÃ£o as ri-que-zas Des-te mun-do dein-cer-te-zas, Queas do cÃ©u nÃ£o dÃ£o tris-te-zas! Oh, bus-cai-as, sim, bus-cai!
w:2.~Oh, bus-cai, nÃ£o as lou-cu-ras, Que sÃ³ tra-zem a-mar-gu-ras, Mas ven-tu-ras san-tas, pu-ras. Oh, bus-cai-as, sim, bus-cai!
w:3.~Oh, bus-cai Je-sus pri-mei-ro! Sal-va-Ã§Ã£o hÃ¡ no Cor-dei-ro, Ple-no go-zoe ver-da-dei-ro; Oh, bus-cai-o, sim, bus-cai!
w:4.~Oh, bus-cai a san-ti-da-de, A pu-re-zaea ca-ri-da-de! I-mi-tai su-ahu-mil-da-de; I-mi-tai-a, i-mi-tai!
w:5.~Com os seus i-mi-ta-do-res, Se-de bons tra-ba-lha-do-res, E bus-cai os pe-ca-do-res; Oh, bus-cai-os, sim, bus-cai!
w:6.~Sim, bus-cai-os, pra sal-vÃ¡-los, I-de com a-mor ga-nhÃ¡-los, Pois Je-sus man-dou cha-mÃ¡-los; Oh, bus-cai-os, sim, bus-cai!
W:
W:
W:1. Oh, buscai, nÃ£o as riquezas
W:Deste mundo de incertezas,
W:Que as do cÃ©u nÃ£o dÃ£o tristezas!
W:Oh, buscai-as, sim, buscai!
W:
W:2. Oh, buscai, nÃ£o as loucuras,
W:Que sÃ³ trazem amarguras,
W:Mas venturas santas, puras.
W:Oh, buscai-as, sim, buscai!
W:
W:3. Oh, buscai Jesus primeiro!
W:SalvaÃ§Ã£o hÃ¡ no Cordeiro,
W:Pleno gozo e verdadeiro;
W:Oh, buscai-o, sim, buscai!
W:
W:
W:
W:4. Oh, buscai a santidade,
W:A pureza e a caridade!
W:Imitai sua humildade;
W:Imitai-a, imitai!
W:
W:5. Com os seus imitadores,
W:Sede bons trabalhadores,
W:E buscai os pecadores;
W:Oh, buscai-os, sim, buscai!
W:
W:6. Sim, buscai-os, pra salvÃ¡-los,
W:Ide com amor ganhÃ¡-los,
W:Pois Jesus mandou chamÃ¡-los;
W:Oh, buscai-os, sim, buscai!
W:
W:

